X:1
T:Jingle Bells
M:C
L:1/8
Q:80
C:Arr. Scott McClellan
S:
K:HP
{g}Af{g}ed{g}A3{GAG}A | \
{g}Af{g}ed{gBd}B4 | \
{g}Bg{a}fe{gcd}c4 |
a{g}age{gfg}f4 | \
{g}Af{g}ed{g}A3{GAG}A | \
{g}Af{g}ed{gBd}B4 |
{g}Bg{a}fea{g}a{g}af | \
{gf}g{a}g{a}fe{Gdc}d2e2|]  |: \
{g}c{e}c{G}c2{g}c{e}c{G}c2 |
{g}ce{g}A3/2B/2{GdG}c4 | \
{Gdc}d{e}d{c}d3/2{g}d/2{c}dc{g}c{G}c|1
{gcd}cB{G}Bc{gBd}B2e2:| |
|2 {g}e{A}e{Gdc}d{e}B{G}A4|]
